X:71
T:Stag Hunt or ... THO5.071, The
T:Windsor Amusement. THO5.071, The
M:6/8
L:1/8
B:Thompson's Complete Collection of 200 Favourite Dances Vol.5
F:https://www.libraryofdance.org/manuals/1780c-Thompson-Compleat-5.pdf
Z:vmp. Peter Dunk 2024
Q:3/8=100
K:G
Bcd ded|g2d e2d|efg dcB|AAA A3|
d^cd ede|fef gfg|agf gfe|ddd d3:|
|:dgd d2B|cec c2A|BGB dcB|AAA A3|
dgd d2B|cec c2A|gfe dcB|AGF G3:|
W:
W:Turn your Partner with your right hand then with the left ./.
W:Lead down the middle and up again ./:
W:First 2nd & 3rd Couples Promenade round :/.
W:then La Pousett :/:

